X:0627
M:C|
L:1/8
Q:1/2=104
K:G
z| g2  dc {c}B2  AG | FGAB    cAAf|(g/f/e/f/) gd cBAG   | DGAc    BGG:|
  (DG)(BG)  (DG)(BG)|(DG)(BG) cAAc| Bdef         gedc   | BdAc    BGG|]

